build/img/category2__img_01.svg

<svg width="64" height="64" viewBox="0 0 64 64" fill="none" xmlns="http://www.w3.org/2000/svg">
<g opacity="0.4">
<path d="M61.9355 57.9976H64.0001V60.0621H61.9355V57.9976Z" fill="#333333"/>
<path d="M4.13086 57.9976H59.8714V60.0621H4.13086V57.9976Z" fill="#333333"/>
<path d="M0.00195312 57.9976H2.06647V60.0621H0.00195312V57.9976Z" fill="#333333"/>
<path d="M18.4516 32.3854C18.816 31.8682 19.1597 31.3461 19.4934 30.8224L27.8717 34.6318V44.2893C27.8717 46.5659 26.02 48.4182 23.7428 48.4182C21.7454 48.4182 20.0766 46.9923 19.6965 45.1058C20.8538 44.6567 21.6783 43.5388 21.6783 42.2248C21.6783 40.5172 20.2893 39.1281 18.5816 39.1281C16.8745 39.1281 15.4849 40.5172 15.4849 42.2248C15.4849 43.5932 16.3831 44.7444 17.6164 45.1522C18.0388 48.1591 20.6214 50.4827 23.7428 50.4827C25.3305 50.4827 26.7745 49.8774 27.8717 48.893V58.7405H29.9362V13.3223H34.0651V58.7405H36.1296V48.893C37.2268 49.8774 38.6708 50.4827 40.2585 50.4827C43.3799 50.4827 45.9625 48.1591 46.3849 45.1522C47.6182 44.7444 48.5164 43.5932 48.5164 42.2248C48.5164 40.5172 47.1273 39.1281 45.4197 39.1281C43.7126 39.1281 42.323 40.5172 42.323 42.2248C42.323 43.5388 43.1481 44.6567 44.3048 45.1058C43.9253 46.9923 42.2559 48.4182 40.2585 48.4182C37.9813 48.4182 36.1296 46.5659 36.1296 44.2893V34.6318L58.1769 24.6093C58.3962 24.6386 58.6129 24.6769 58.8387 24.6769C61.6849 24.6769 63.9998 22.3614 63.9998 19.5157C63.9998 16.6695 61.6849 14.3546 58.8387 14.3546C56.4905 14.3546 54.5253 15.9407 53.9028 18.0919L36.1296 26.1703V12.5335L38.316 8.16116L35.7354 3H28.2664L25.6858 8.16116L27.8717 12.5335V26.1703L22.8643 23.8941C23.0513 23.3266 23.2206 22.7661 23.3497 22.2228C24.1702 18.7783 23.6874 16.2225 21.9923 15.0274C20.0776 13.6782 17.0363 14.413 13.6055 17.0042C9.4105 15.4886 4.54974 16.8741 1.85726 20.6891C0.294802 22.9042 -0.311029 25.5952 0.151157 28.2655C0.4576 30.0341 1.21565 31.6465 2.33003 32.9922C1.04529 37.0904 1.3724 40.1972 3.28717 41.5464C3.9303 41.9995 4.69388 42.2163 5.54669 42.2163C9.08642 42.2183 14.1543 38.4764 18.4516 32.3854ZM18.5816 41.1926C19.1517 41.1926 19.6139 41.6548 19.6139 42.2248C19.6139 42.7944 19.1517 43.2571 18.5816 43.2571C18.0121 43.2571 17.5494 42.7944 17.5494 42.2248C17.5494 41.6548 18.0121 41.1926 18.5816 41.1926ZM45.4197 41.1926C45.9897 41.1926 46.4519 41.6548 46.4519 42.2248C46.4519 42.7944 45.9897 43.2571 45.4197 43.2571C44.8501 43.2571 44.3874 42.7944 44.3874 42.2248C44.3874 41.6548 44.8501 41.1926 45.4197 41.1926ZM29.542 11.2579L28.5098 9.19339H35.492L34.4598 11.2579H29.542ZM58.8387 16.419C60.5463 16.419 61.9354 17.8081 61.9354 19.5157C61.9354 21.2228 60.5463 22.6124 58.8387 22.6124C57.1316 22.6124 55.742 21.2228 55.742 19.5157C55.742 17.8081 57.1316 16.419 58.8387 16.419ZM53.7693 20.4199C53.9915 21.6649 54.6654 22.7435 55.6099 23.5091L36.1296 32.3637V28.4384L53.7693 20.4199ZM34.4598 5.06446L35.492 7.12893H28.5098L29.542 5.06446H34.4598ZM27.8717 28.4384V32.3637L20.5574 29.0387C21.1612 27.9611 21.697 26.8855 22.141 25.8326L27.8717 28.4384ZM3.54522 21.8806C6.11522 18.2365 11.1726 17.3656 14.8151 19.9315H14.8161C13.9512 22.2687 12.6463 24.7303 10.9679 27.1098C9.28954 29.4898 7.40702 31.5452 5.49528 33.1439C3.72919 31.9 2.55432 30.0432 2.18588 27.9157C1.81745 25.7882 2.3003 23.6446 3.54522 21.8806ZM4.47514 39.861C3.50994 39.1805 3.36126 37.1841 4.01094 34.6025C4.10973 34.6781 4.20146 34.7593 4.30478 34.8319L7.6172 37.1655L8.80668 35.478L7.24876 34.3808C9.1469 32.723 10.9982 30.647 12.6539 28.2998C14.3126 25.9475 15.6286 23.507 16.5535 21.1578L18.1255 22.2667L19.3145 20.5787L16.0021 18.2436C15.8998 18.1715 15.7914 18.1125 15.6876 18.0455C17.9027 16.5662 19.8326 16.035 20.7998 16.7159C21.7313 17.3726 21.9334 19.2531 21.3386 21.746C20.6537 24.628 19.0277 27.9827 16.7611 31.1954C12.0909 37.8202 6.42318 41.2314 4.47514 39.861Z" fill="#333333"/>
</g>
</svg>

<svg width="64" height="64" fill="none" xmlns="http://www.w3.org/2000/svg"><g opacity=".4" fill="#333"><path d="M61.935 57.998H64v2.064h-2.065v-2.064zm-57.805 0h55.741v2.064H4.131v-2.064zm-4.128 0h2.064v2.064H.002v-2.064z"/><path d="M18.452 32.385a40.35 40.35 0 001.041-1.563l8.379 3.81v9.657a4.133 4.133 0 01-4.13 4.13 4.135 4.135 0 01-4.046-3.313 3.094 3.094 0 001.982-2.881 3.1 3.1 0 00-3.096-3.097 3.1 3.1 0 00-3.097 3.097 3.09 3.09 0 002.131 2.927c.423 3.007 3.005 5.33 6.127 5.33a6.163 6.163 0 004.129-1.589v9.847h2.064V13.322h4.13V58.74h2.064v-9.847a6.163 6.163 0 004.128 1.59c3.122 0 5.704-2.324 6.127-5.33a3.09 3.09 0 002.131-2.928 3.1 3.1 0 00-3.096-3.097 3.1 3.1 0 00-3.097 3.097c0 1.314.825 2.432 1.982 2.88a4.134 4.134 0 01-4.047 3.313 4.133 4.133 0 01-4.128-4.129v-9.657l22.047-10.023c.22.03.436.068.662.068a5.167 5.167 0 005.16-5.161 5.166 5.166 0 00-5.16-5.161c-2.349 0-4.314 1.586-4.936 3.737L36.13 26.17V12.533l2.186-4.372L35.736 3h-7.47l-2.58 5.161 2.186 4.373V26.17l-5.008-2.276a20.67 20.67 0 00.486-1.671c.82-3.445.337-6-1.358-7.196-1.914-1.349-4.956-.614-8.387 1.977-4.194-1.515-9.055-.13-11.748 3.685a10.077 10.077 0 00-1.706 7.576 10.085 10.085 0 002.179 4.727c-1.285 4.098-.958 7.205.957 8.554.643.453 1.407.67 2.26.67 3.54.002 8.607-3.74 12.905-9.83zm.13 8.808a1.032 1.032 0 110 2.064 1.032 1.032 0 010-2.064zm26.838 0a1.032 1.032 0 110 2.064 1.032 1.032 0 010-2.064zM29.542 11.258L28.51 9.193h6.982l-1.032 2.065h-4.918zm29.297 5.161a3.1 3.1 0 013.096 3.097 3.1 3.1 0 01-3.096 3.096 3.1 3.1 0 01-3.097-3.096 3.1 3.1 0 013.097-3.097zm-5.07 4a5.14 5.14 0 001.84 3.09l-19.48 8.855v-3.926l17.64-8.018zM34.46 5.065l1.033 2.065H28.51l1.032-2.065h4.918zm-6.587 23.374v3.926l-7.315-3.325a32.22 32.22 0 001.584-3.206l5.73 2.605zM3.545 21.881c2.57-3.645 7.628-4.515 11.27-1.95h.001c-.865 2.338-2.17 4.8-3.848 7.179-1.678 2.38-3.561 4.435-5.473 6.034a8.028 8.028 0 01-3.31-5.228 8.024 8.024 0 011.36-6.035zm.93 17.98c-.965-.68-1.114-2.677-.464-5.258.099.075.19.156.294.229l3.312 2.334 1.19-1.688-1.558-1.097c1.898-1.658 3.75-3.734 5.405-6.081 1.659-2.352 2.975-4.793 3.9-7.142l1.572 1.109 1.188-1.688-3.312-2.335c-.102-.072-.21-.131-.314-.198 2.215-1.48 4.145-2.011 5.112-1.33.931.657 1.133 2.537.539 5.03-.685 2.882-2.311 6.237-4.578 9.45C12.091 37.82 6.423 41.23 4.475 39.86z"/></g></svg>
